la/box-open-solid.svg

<svg xmlns="http://www.w3.org/2000/svg" viewBox="0 0 32 32" height="1em" width="1em">
  <path d="M 16 4 L 11 8 L 21 8 Z M 8.5 5 L 5 9.65625 L 5 27 L 27 27 L 27 9.65625 L 23.5 5 L 18.5 5 L 21 7 L 22.5 7 L 24 9 L 8 9 L 9.5 7 L 11 7 L 13.5 5 Z M 7 11 L 25 11 L 25 25 L 7 25 Z M 12.8125 13 C 12.261719 13.050781 11.855469 13.542969 11.90625 14.09375 C 11.957031 14.644531 12.449219 15.050781 13 15 L 19 15 C 19.359375 15.003906 19.695313 14.816406 19.878906 14.503906 C 20.058594 14.191406 20.058594 13.808594 19.878906 13.496094 C 19.695313 13.183594 19.359375 12.996094 19 13 L 13 13 C 12.96875 13 12.9375 13 12.90625 13 C 12.875 13 12.84375 13 12.8125 13 Z"/>
</svg>

<svg xmlns="http://www.w3.org/2000/svg" viewBox="0 0 32 32" height="1em" width="1em">
  <path d="m16 4-5 4h10ZM8.5 5 5 9.656V27h22V9.656L23.5 5h-5L21 7h1.5L24 9H8l1.5-2H11l2.5-2ZM7 11h18v14H7Zm5.813 2c-.551.05-.958.543-.907 1.094.051.55.543.957 1.094.906h6c.36.004.695-.184.879-.496a1.01 1.01 0 0 0 0-1.008c-.184-.312-.52-.5-.879-.496h-6.188Z"/>
</svg>
